X:1
T:Hope and Legacy (Asian Dream Song & View of Silence)
T:Hope and Legacy (Asian Dream Song & View of Silence)
T:羽生結弦 Yuzuru Hanyu 2016-17 FS
T:Joe Hisaishi
C:Joe Hisaishi
%%score { ( 1 4 ) | ( 2 3 ) }
L:1/8
Q:1/4=87
M:4/4
K:Eb
V:1 treble nm="Piano" snm="Pno."
V:4 treble 
V:2 bass 
V:3 bass 
V:1
!mp! z/ !tenuto!E/G/c/ z/ !tenuto!E/G/c/ z/ !tenuto!E/G/c/ z/ !tenuto!E/G/c/ | %1
 z/ !tenuto!E/F/c/ z/ !tenuto!E/F/c/ z/ !tenuto!E/F/c/ z/ !tenuto!E/F/c/ | %2
 z/ !tenuto!F/G/c/ z/ !tenuto!F/G/c/ z/ !tenuto!F/G/c/ z/ !tenuto!F/G/c/ | %3
 z/ !tenuto!E/G/d/ z/ !tenuto!E/G/d/ z/ !tenuto!E/G/d/ z/ !tenuto!E/G/d/ | %4
 z/ !tenuto!F/A/f/ z/ !tenuto!F/A/f/ z/ !tenuto!F/A/f/ z/ !tenuto!F/A/f/ | %5
 z/ !tenuto!F/G/f/ z/ !tenuto!F/G/f/ z/ !tenuto!F/G/f/ z/ !tenuto!F/G/f/ | %6
 z/ !tenuto!E/G/e/ z/ !tenuto!E/G/e/ z/ !tenuto!E/G/e/ z/ !tenuto!E/G/e/ | %7
!<(! z/ !tenuto!F/G/d/ z/ !tenuto!F/G/d/ z/ !tenuto!F/G/d/ z/ !tenuto!F/G/d/!<)! | %8
!f! z/ !tenuto!A/c/g/ z/ !tenuto!A/c/g/ z/ !tenuto!A/c/g/ z/!>(! !tenuto!A/c/g/!>)! | %9
 z/!mf! !tenuto!A/c/f/ z/ !tenuto!A/c/f/ z/ !tenuto!A/c/f/ z/ !tenuto!A/c/f/ | %10
 z/ !tenuto!G/B/f/ z/ !tenuto!G/B/f/ z/ !tenuto!G/B/f/ z/ !tenuto!G/B/f/ | %11
 z/ !tenuto!G/B/f/ z/ !tenuto!G/B/f/ z/ !tenuto!G/B/f/ z/ !tenuto!G/B/f/ | %12
[Q:1/4=84] z/ F/G/c/ C/F/G/c/[Q:1/4=80] z/ F/!<(!G/c/ C/F/G/c/ | %13
[Q:1/4=77] z/ F/G/c/ C/F/G/c/[Q:1/4=74] z/ F/G/c/ C/F/G/!breath!c/!<)! |[Q:1/4=70] z2 E,G, CDGc | %15
 d[eg][df][Q:1/4=60][gb] [fa]!8va(![c'e'][bd'][e'g'] | [d'f']2 !arpeggio![c'g'c'']6- | %17
 [c'g'c'']6!8va)![Q:1/4=79] e2 ||[K:Ab] f4 ga b2 | c6 z e | f4 ga b2 | %21
 !arpeggio![eac']4 [ac']2 z2 | [A,CF]2 [Be][cf] B,2 [Be][cf] | CE[Be][cf] [ea][cf] z2 | %24
 [A,CF]2 [Be][cf] B,2 [Be][cf] | !arpeggio![egc']6 [Cc][Ee] | [Ff][Ff][Ff][Ff] [Ff]2 [Ee][Cc] | %27
 [B,B][B,B][B,B][Cc] [F,F]2 [A,A][B,B] | [Cc][Ee][Ee][Cc] [B,B][Cc] F2 | %29
 [Aa](3g/a/g/ fc z2 [Cc][Ee] ||[Q:1/4=86]{/F} [Ff]3 [Aa] [GBg][GBg][Ff][Ee] | %31
 [Ee][FAf]/[FAf]/- [FAf]4!8va(! [cc'][ee'] | [faf'][faf'][faf'][aa'] [gbg'][gbg'][ff'][ee'] | %33
 [ee'][faf']/[faf']/- [faf']4!8va)!!mf! EF | !arpeggio![CFA]2 FA [FGB]2{cB} AB | %35
 !arpeggio![FBc]6!8va(! [cc'][ee'] | [fbc'f'][fbc'f'][fbc'f'][fbc'f'] [fbc'f']2 [ee'][cc']!8va)! | %37
 [Beb][Beb][Beb][cc'] [Ff]2 [Aa][Bb] | [cc'][ee'][ee'][cc'] [Bb][cc'] [Ff]2 | [Acea]6 x2 || %40
 [_Gdf] [Gdf]2 [Gdf] [Gdf]2 ec | [FB]2 [FA]4 z [FA] | [_Gdf] [Gdf]2 [Gdf] [Gdf]2 ec | %43
 [FB]4!<(! [FA]2 [E=GB]2!<)! |{/AB} [Fc]2 [Fc][Fc] [Fc]2{/dc} [=EB]2 | [Gce]4 [FA]2 [Ff][Aa] | %46
 [B_gb][Bgb][Bgb][cgc'] [Bgb]2 [Ff][Aa] | [Bfb][Bfb][Bfb][ee'] [cac']2!8va(! g/c'/=g'/b'/ | %48
 c''/g'/f'/c'/ g'/f'/c'/g/ f'/c'/b/a/ c'/g/f/c/!8va)! |!<(! z2 (3C/G/c/(3c/=e/g/!<)!!f! [cgc']4- | %50
 [cgc']4 z2!ff! !tenuto![Cc]!tenuto![E_e] | [Fdf]3 [Aa] [GBg][GBg][Ff][Ee] | %52
 [Ee][FAf]/[FAf]/- [FAf]4!8va(! [cc'][ee'] | [faf'][faf'][faf'][aa'] [gbb'][gbb'][ff'][ee'] | %54
 [ee'][faf']/[faf']/- [faf']2!8va)! A/G/F/C/ [Cc][Ee] | [Ff]3 [Aa] [Gg][Gg][Ff][Ef] | %56
 [Ee][Ff]/[Ff]/- [Ff]4 z2 |!mf! C/!<(!F/B/D/ _G/=B/E/A/ d/F/_B/e/ =G/=B/=e/g/!<)! | %58
 [gc']/4c/4[gc']/4c/4[gc']/4c/4[gc']/4c/4 [gc']/4c/4[gc']/4c/4[gc']/4c/4[gc']/4c/4 [gc']/4c/4[gc']/4c/4[gc']/4c/4[gc']/4c/4 [gc']/4c/4[gc']/4c/4[gc']/4c/4[gc']/4c/4 | %59
 [cgc']6 z2 ||[K:Eb][M:12/8][Q:3/8=105]!mp! D6- D6 | F6- F6 | D6- D6 | [B,D]12 | [Dd]6- [Dd]6 | %65
"_cresc." [Ff]6- [Ff]6 | [Dd]6- [Dd]6 | [Dd]6!<(! !>![Cc]3 !>![Gg]3!<)! | !>![Ff]12 | %69
 !>![Gg]2 !>![Aa]2 !>![Bb]2 !>![Bb]2 !>![Aa]2 !>![Gg]2 | [Ff]12 | [Bb]6 [Bb]3 [cc']3 | %72
 [dd']6- [dd']6 | !>![ff']6 !>![ee']2 !>![dd']2 !>![cc']2 | [dfgd']12 | %75
[M:4/4][Q:1/4=100]"_rit." [gc'][dg] [cf][Q:1/4=90][Be] [Gc][DG][Q:1/4=85] [CF][B,E] || %76
[Q:1/4=72]!mp! [CEG]4- [CEG]CGA | [_DF]4 !arpeggio![gb_d'f']4 |!pp! !arpeggio![Gdf]8 || %79
[M:6/8] z2[Q:3/8=60] [Gc] [DG][CF][DG] | [Gc][DG][Gc]!<(! [DG][CF][DG]!<)! | %81
 !>![dg]G/=B/!>![eg] G/c/!>![dg]G/d/ ||[Q:3/8=68] [Ad]3- [Ad]2 c | [Bf]3- [Bf]2 e | %84
 [Bd]3- [Bd]2 c | d4 [Ac][eg] | [dg]6 | f[Gg][Aa] [Bb][Aa][Gg] | [Ff]6 | [Bb]3- [Bb]2 [cc'] | %90
 [dgd']3- [dgd']2 [cc'] | [fc'f']3 z z2 | [dgd']6 | %93
[Q:3/8=60]"_rit." [d=b]/g/=a/b/[ec']/a/[Q:3/8=50] b/c'/[fd']/b/c'/d'/ || %94
[Q:3/8=68] [cgc']2 [ee']2 [gg']2 | [ff']2 [dd']3 [Gg] | [cgc']2 [ee']2 [gg']2 | %97
 [ff']2 [dd']3 [Gg] | [eae'][ead'][eac'-] c'3- | c'3/2 z/ z4 | [eae'][ead'][eac'-] c'3- | %101
[Q:3/8=60]"_rit." c'3 z z2 ||[Q:3/8=62]!mf! c2 e2 g2 | f2 d3 B | [Ace]dc- c3- | %105
[Q:3/8=50]"_rit." c3[Q:3/8=45] [Fcd]3- | [Fcd]2 [cgc']4- | !fermata![cgc']6 |] %108
V:2
!ped! D2 D2 D2 D2!ped-up! |!ped! C2 C2 C2 C2!ped-up! |!ped! D2 D2 D2 D2!ped-up! | %3
!ped! D2 D2 D2 D2!ped-up! |!ped! D2 D2 D2 D2!ped-up! |!ped! D2 D2 D2 D2!ped-up! | %6
!ped! D2 D2 D2 D2!ped-up! |!ped! C2 C2 C2 C2!ped-up! |!ped! G2 G2 G2 G2!ped-up! | %9
!ped! F2 F2 F2 F2!ped-up! |!ped! D2 D2 D2 C2!ped-up! |!ped! D2 D2 D2 C2!ped-up! | %12
"^(rit.)"!ped! !>![B,C]4 !>![A,C]4!ped-up! |!ped! !>![G,C]4 !>![F,C]4!ped-up! | %14
!ped! [A,,,A,,E,A,]8- | [A,,,A,,E,A,]8- | [A,,,A,,E,A,]2!ped-up!!8vb(!!ped! [C,,,C,,]6- | %17
 [C,,,C,,]6 [C,,,C,,]2!8vb)!!ped-up! ||[K:Ab]!ped! D,A,FA, E,B,GB,!ped-up! | %19
!ped! F,CAC GCFC!ped-up! |!ped! D,A,FA, E,B,GB,!ped-up! | %21
[K:treble]!ped! A,EAc e2[K:bass] E,F,!ped-up! |!ped! D,, D,3!ped-up!!ped! E,, E,3!ped-up! | %23
!ped! F,, F,3- F,4!ped-up!!ped! | D,, D,3!ped-up!!ped! E,, E,3!ped-up! | %25
!ped! A,,E,A,C G2 z2!ped-up! |!ped! D,,A,,F,B, C4!ped-up! |!ped! C,,G,, E,2 B,,2 C,2!ped-up! | %28
!ped! D,,A,,F,A,, E,,B,, G,2!ped-up! |!ped! F,,C,A,C, F,,2 z2!ped-up! || %30
!ped! F,,C,A,C, E,,B,,G,B,,!ped-up! |!ped! F,,C,A,C, F,,C,A,C,!ped-up! | %32
!ped! D,,A,,F,A,, E,,B,,G,B,,!ped-up! |!ped! F,,C,A,C, F,,2 z2!ped-up! | %34
!ped! D,,A,,F,A,, E,,B,,G,B,,!ped-up! |!ped! A,,E,A,C !>!F!>!E, [A,,A,]2!ped-up! | %36
!ped! D,,A,,F,A,, D,,A,,F,A,,!ped-up! |!ped! C,,G,, E,2 [B,,,B,,]2 [C,,C,]2!ped-up! | %38
!ped! D,,A,,F,A,, E,,B,,G,B,,!ped-up! |!ped! D,,C,A,C, G,C, !>![A,,A,]2!ped-up! || %40
!ped! _G,,D,B,D, G,,D,B,D,!ped-up! |!ped! D,,A,,F,A,, D,,A,,F,A,,!ped-up! | %42
!ped! _G,,D,B,D, G,,D,B,D,!ped-up! |!ped! F,,A,,F,A,, F,,F,E,,E,!ped-up! | %44
!ped! D,,A,,F,A,, D,,A,,=E,A,,!ped-up! |!ped! C,,G,,_E,G,, F,,C,A,C,!ped-up! | %46
!ped! _G,,D,_G,D, G,,D,G,D,!ped-up! |!ped! F,,C,F,C, F,,C,F,C,!ped-up! | %48
!ped! [C,,,C,,]C,,G,,C, G,C,CC,!ped-up! | %49
!ped! C,,/4C,/4C,,/4C,/4C,,/4C,/4C,,/4C,/4 C,,/4C,/4C,,/4C,/4C,,/4C,/4C,,/4C,/4 [C,,C,]4- | %50
 [C,,C,]4!ped-up! z2 !tenuto!C,!tenuto!E, | %51
 D,,/!ped!A,,/D,/E,/ F,/E,/D, E,,/B,,/E,/F,/ G,/F,/E,!ped-up! | %52
!ped! F,,/C,/F,/G,/ A,/G,/F, F,,/C,/F,/G,/ A,/G,/F,!ped-up! | %53
 D,,/!ped!A,,/D,/E,/ F,/E,/D, E,,/B,,/E,/F,/ G,/F,/E,!ped-up! | %54
!ped! F,,/C,/F,/G,/ A,/G,/F, F,,/C,/F,/G,/ A,/G,/F,!ped-up! | %55
!ped! [D,,D,]/ z/ [D,,D,]- [D,,D,]/[D,,D,]/[D,,D,]/[D,,D,]/ [E,,E,]/[E,,E,]/ z !tenuto![E,,E,]2!ped-up! | %56
!ped! [D,,D,]/ z/ [D,,D,]- [D,,D,]/[D,,D,]/[D,,D,]/[D,,D,]/ [E,,E,]/[E,,E,]/ z !tenuto![F,,F,]2!ped-up! | %57
!ped! [F,,F,]>[_F,,_F,]- [F,,F,][E,,E,]- [E,,E,]<[=D,,=D,] [_D,,_D,]2!ped-up! | %58
!ped! C,,/4C,/4C,,/4C,/4C,,/4C,/4C,,/4C,/4 C,,/4C,/4C,,/4C,/4C,,/4C,/4C,,/4C,/4 C,,/4C,/4C,,/4C,/4C,,/4C,/4C,,/4C,/4 C,,/4C,/4C,,/4C,/4C,,/4C,/4C,,/4C,/4 | %59
 [C,,C,]6!ped-up! z2 ||[K:Eb][M:12/8]!ped! A,,E,A, B,A,E, A,,E,A, B,A,E,!ped-up! | %61
!ped! A,,E,A, B,A,E, A,,E,A, B,A,E,!ped-up! |!ped! G,,D,F, G,F,D, G,,D,F, G,F,D,!ped-up! | %63
!ped! G,,D,F, G,F,D, G,,D,F, G,F,D,!ped-up! |!ped! A,,E,A, B,A,E, A,,E,A, B,A,E,!ped-up! | %65
!ped! A,,E,A, B,A,E, A,,E,A, B,A,E,!ped-up! |!ped! G,,D,F, G,F,D, G,,D,F, G,F,D,!ped-up! | %67
!ped! G,,D,F, G,F,D, G,,D,F, G,F,D,!ped-up! |!ped! A,,E,A, B,A,E, A,,E,A, B,A,E,!ped-up! | %69
!ped! A,,E,A, B,A,E, A,,E,A, B,A,E,!ped-up! |!ped! G,,D,F, G,F,D, G,,D,F, G,F,D,!ped-up! | %71
 G,,!ped!D,F, G,F,D, G,,D,F, G,F,D,!ped-up! |!ped! A,,E,A, B,A,E, A,,E,A, B,A,E,!ped-up! | %73
!ped! A,,E,A, B,A,E, A,,E,A, B,A,E,!ped-up! |!ped! G,,D,F, G,F,D, G,,D,F, G,F,D,!ped-up! | %75
[M:4/4]!ped! !arpeggio![G,,D,F,]8!ped-up! ||!ped! F,,C,G,A, E2 C2!ped-up! | %77
!ped! [G,,_D,G,]8!ped-up! |!ped! [G,,G,]8!ped-up! ||[M:6/8] z6!ped!!ped-up! |!ped! z6!ped-up! | %81
!ff!!ped! !>![G,,,G,,]2 !>![=A,,,=A,,]2 !>![=B,,,=B,,]2!ped-up! || %82
!ped! A,,,E,,A,, A,,,E,,A,,!ped-up! |!ped! A,,,E,,A,, A,,,E,,A,,!ped-up! | %84
!ped! G,,,D,,G,, G,,,D,,G,,!ped-up! |!ped! G,,,D,,G,, G,,,D,,G,,!ped-up! | %86
!ped! A,,,E,,A,, A,,,E,,A,,!ped-up! |!ped! A,,,E,,A,, A,,,E,,A,,!ped-up! | %88
!ped! G,,,D,,G,, G,,,D,,G,,!ped-up! |!ped! G,,,D,,G,, G,,,D,,G,,!ped-up! | %90
!ped! A,,,E,,A,, A,,,E,,A,,!ped-up! |!ped! A,,,E,,A,, A,,,E,,A,,!ped-up! | %92
!ped! G,,,D,,G,, G,,,D,,G,,!ped-up! | %93
!ped! [G,,,D,,G,,]G,,[=A,,,E,,=A,,] A,,[=B,,,F,,=B,,]B,,!ped-up! ||!ped! [E,,,E,,]6!ped-up! | %95
!ped! [B,,,B,,]6!ped-up! |!ped! [C,,C,]6!ped-up! |!ped! [B,,,B,,]6!ped-up! | %98
!ped! [A,,,A,,]3 [A,,E,]A,E,!ped-up! |!ped! [A,,,A,,]2 A,, B,,,B,,B,,,!ped-up! | %100
!ped! [A,,,A,,]3 [A,,E,]A,E,!ped-up! |!ped! [A,,,A,,]2 A,, !fermata![B,,,B,,]3!ped-up! || %102
!ped! C,G,C G,EG,!ped-up! |!ped! B,,G,B, G,DG,!ped-up! |!ped! A,,E,A, CA,E,!ped-up! | %105
!ped! A,,E,A, [B,,B,]3-!ped-up! |!ped! [B,,B,]2!8vb(! !fermata![A,,,C,]4-!8vb)! | %107
 [A,,C]6!ped-up! |] %108
V:3
 x8 | x8 | x8 | x8 | x8 | x8 | x8 | x8 | x8 | x8 | x8 | x8 | x8 | x8 | x8 | x8 | x2!8vb(! x6 | %17
 x8!8vb)! ||[K:Ab] x8 | x8 | x8 |[K:treble] x6[K:bass] x2 | z2 F,A, z2 A,B, | z2 EC A,2 E,F, | %24
 z2 F,A, B,2 A,B, | C6 x2 | x8 | x8 | x8 | x8 || x8 | x8 | x8 | x8 | x8 | x8 | x8 | x8 | x8 | x8 || %40
 x8 | x8 | x8 | x8 | x8 | x8 | x8 | x8 | x8 | x8 | x8 | x8 | x8 | x8 | x8 | x8 | x8 | x8 | x8 | %59
 x8 ||[K:Eb][M:12/8] x12 | x12 | x12 | x12 | x12 | x12 | x12 | x12 | x12 | x12 | x12 | x12 | x12 | %73
 x12 | x12 |[M:4/4] x8 || x8 | x8 | x8 ||[M:6/8] x6 | x6 | x6 || x6 | x6 | x6 | x6 | x6 | x6 | x6 | %89
 x6 | x6 | x6 | x6 | x6 || z [G,C][G,C] [G,C][G,C][G,C] | z [F,B,][F,B,] [F,B,][F,B,][F,B,] | %96
 z [G,C][G,C] [G,C][G,C][G,C] | z [F,B,][F,B,] [F,B,][F,B,][F,B,] | x6 | x6 | x6 | x6 || x6 | x6 | %104
 x6 | x6 | x2!8vb(! x4!8vb)! | x6 |] %108
V:4
 x8 | x8 | x8 | x8 | x8 | x8 | x8 | x8 | x8 | x8 | x8 | x8 | x8 | x8 | x8 | x5!8va(! x3 | x8 | %17
 x6!8va)! x2 ||[K:Ab] x8 | x8 | x8 | x8 | x8 | x8 | x8 | x8 | x8 | x8 | x8 | x8 || x8 | %31
 x6!8va(! x2 | x8 | x6!8va)! x2 | x8 | x6!8va(! x2 | x8!8va)! | x8 | x8 | %39
 z2 [GB]2 [FA]2 !>![EABc]2 || x8 | x8 | x8 | x8 | x8 | x8 | x8 | x6!8va(! x2 | x8!8va)! | x8 | x8 | %51
 x8 | x6!8va(! x2 | x8 | x4!8va)! x4 | x8 | x8 | x8 | x8 | x8 ||[K:Eb][M:12/8] x11 C | x11 E | %62
 x11 C | x12 | x11 [Cc] | x11 [Ee] | x11 [Cc] | x12 | z3 cBc ede cBc | x12 | z3 cBc ede cBc | x12 | %72
 z8 z2 z [cc'] | x12 | z2 d2 ef B3- B2 A |[M:4/4] x8 || x8 | x8 | x8 ||[M:6/8] x6 | x6 | x6 || %82
 z [eg]/a/b g/a/b/c'/a/g/ | z [eg]/a/b g/a/b/c'/a/g/ | z [gb]/[ac']/[bd'] b/c'/d'/e'/c'/b/ | %85
 g[df][ce] [Bd] z2 | z [eg]/a/b g/ x/ a/b/c'/a/ | x6 | z [fa]/b/c' a/b/c'/d'/b/a/ | %89
 z [fa]/b/c' a/b/c'/c'/ z | z [eg][eg] [eg][eg] z | z [ac'][ac'] [ee'][dd'][cc'] | %92
 z [gb][gb] [gb][gb][gb] | x6 || x6 | x6 | x6 | x6 | z3 [ea][ea][ea] | [ea][ea][ea] [cc']2 [Bb] | %100
 z3 [ea][ea][ea] | [ce][ce][ce] !fermata![Bcf]3 || x6 | x6 | x6 | x6 | x6 | x6 |] %108

